fonts/svg/mortar-board-16.svg

<?xml version="1.0" encoding="UTF-8" standalone="no"?>
<svg
   xmlns:dc="http://purl.org/dc/elements/1.1/"
   xmlns:cc="http://creativecommons.org/ns#"
   xmlns:rdf="http://www.w3.org/1999/02/22-rdf-syntax-ns#"
   xmlns:svg="http://www.w3.org/2000/svg"
   xmlns="http://www.w3.org/2000/svg"
   xmlns:sodipodi="http://sodipodi.sourceforge.net/DTD/sodipodi-0.dtd"
   xmlns:inkscape="http://www.inkscape.org/namespaces/inkscape"
   width="16"
   height="16"
   viewBox="0 0 16 16"
   version="1.1"
   id="svg19698"
   sodipodi:docname="mortar-board-16.svg"
   inkscape:version="1.0.1 (c497b03c, 2020-09-10)">
  <metadata
     id="metadata19704">
    <rdf:RDF>
      <cc:Work
         rdf:about="">
        <dc:format>image/svg+xml</dc:format>
        <dc:type
           rdf:resource="http://purl.org/dc/dcmitype/StillImage" />
      </cc:Work>
    </rdf:RDF>
  </metadata>
  <defs
     id="defs19702" />
  <sodipodi:namedview
     pagecolor="#ffffff"
     bordercolor="#666666"
     borderopacity="1"
     objecttolerance="10"
     gridtolerance="10"
     guidetolerance="10"
     inkscape:pageopacity="0"
     inkscape:pageshadow="2"
     inkscape:window-width="689"
     inkscape:window-height="480"
     id="namedview19700"
     showgrid="false"
     inkscape:zoom="38.8125"
     inkscape:cx="5.2173913"
     inkscape:cy="11.040258"
     inkscape:window-x="0"
     inkscape:window-y="23"
     inkscape:window-maximized="0"
     inkscape:current-layer="svg19698" />
  <path
     fill-rule="evenodd"
     d="m 7.693,1.066 c 0.19529,-0.0876151 0.41871,-0.0876151 0.614,0 l 7.25,3.25 c 0.58981,0.2652787 0.58981,1.1027213 0,1.368 L 13,6.831 v 2.794 c 0,1.024 -0.81,1.749 -1.66,2.173 C 10.447,12.245 9.265,12.5 8,12.5 7.722,12.5 7.45,12.488 7.184,12.464 6.1999209,12.365417 6.3309819,10.893199 7.317,10.97 7.537,10.99 7.767,11 8,11 9.082,11 10.025,10.779 10.67,10.457 11.36,10.112 11.5,9.775 11.5,9.625 V 7.503 L 8.307,8.934 c -0.19529,0.087615 -0.41871,0.087615 -0.614,0 L 4,7.28 V 8.943 C 4.296,9.048 4.575,9.218 4.812,9.455 5.25,9.893 5.5,10.514 5.5,11.251 v 3 c 0,0.414214 -0.3357864,0.75 -0.75,0.75 h -3 C 1.3357864,15.001 1,14.665214 1,14.251 v -3 C 1,10.514 1.25,9.893 1.688,9.455 1.925,9.218 2.204,9.048 2.5,8.943 V 6.606 L 0.443,5.684 c -0.58980979,-0.2652787 -0.58980979,-1.1027213 0,-1.368 z M 2.583,5 8,7.428 13.416,5 8,2.572 Z M 2.5,13.5 H 4 V 11.25 C 4,10.862 3.875,10.639 3.75,10.515 3.62,10.383 3.44,10.312 3.25,10.312 3.0629856,10.310567 2.8830868,10.383606 2.75,10.515 2.625,10.639 2.5,10.862 2.5,11.25 Z"
     id="path19696"
     sodipodi:nodetypes="cccccscsccscscccccssssssssccccccccccccscccsc" />
</svg>

<svg xmlns="http://www.w3.org/2000/svg" width="16" height="16" viewBox="0 0 16 16"><path fill-rule="evenodd" d="M7.693 1.066a.75.75 0 01.614 0l7.25 3.25a.75.75 0 010 1.368L13 6.831v2.794c0 1.024-.81 1.749-1.66 2.173-.893.447-2.075.702-3.34.702-.278 0-.55-.012-.816-.036a.75.75 0 01.133-1.494c.22.02.45.03.683.03 1.082 0 2.025-.221 2.67-.543.69-.345.83-.682.83-.832V7.503L8.307 8.934a.75.75 0 01-.614 0L4 7.28v1.663c.296.105.575.275.812.512.438.438.688 1.059.688 1.796v3a.75.75 0 01-.75.75h-3a.75.75 0 01-.75-.75v-3c0-.737.25-1.358.688-1.796.237-.237.516-.407.812-.512V6.606L.443 5.684a.75.75 0 010-1.368l7.25-3.25zM2.583 5L8 7.428 13.416 5 8 2.572 2.583 5zM2.5 11.25c0-.388.125-.611.25-.735a.704.704 0 01.5-.203c.19 0 .37.071.5.203.125.124.25.347.25.735v2.25H2.5v-2.25z"/></svg>
